learning-site/svg (124).svg

<svg xmlns="http://www.w3.org/2000/svg" xmlns:xlink="http://www.w3.org/1999/xlink" viewBox="0 0 100 118" version="1.1"><!-- Generator: Sketch 51.3 (57544) - http://www.bohemiancoding.com/sketch --><title>create-an-app-that-models-business-processes</title><desc>Created with Sketch.</desc><defs><filter x="-1.5%" y="-1.3%" width="103.0%" height="105.1%" filterUnits="objectBoundingBox" id="filter-1"><feOffset dx="0" dy="2" in="SourceAlpha" result="shadowOffsetOuter1"></feOffset><feColorMatrix values="0 0 0 0 0   0 0 0 0 0   0 0 0 0 0  0 0 0 0.0993546196 0" type="matrix" in="shadowOffsetOuter1" result="shadowMatrixOuter1"></feColorMatrix><feMerge><feMergeNode in="shadowMatrixOuter1"></feMergeNode><feMergeNode in="SourceGraphic"></feMergeNode></feMerge></filter></defs><g id="Badges-FINAL" stroke="none" stroke-width="1" fill="none" fill-rule="evenodd"><g id="Create-an-app-that-models-business-processes" transform="translate(-579.000000, -156.000000)"><g id="create-an-app-that-models-business-processes" transform="translate(579.000000, 156.000000)"><path d="M44.7425,3.49663266 C46.3745,2.49887755 48.1865,2 50,2 C51.8135,2 53.627,2.49887755 55.256,3.49663266 L92.591,26.3316189 C95.933,28.3773408 98,32.2031485 98,36.3529027 L98,81.6470973 C98,85.7952317 95.933,89.6242789 92.591,91.6683811 L55.256,114.504987 C53.627,115.501122 51.8135,116 50,116 C48.1865,116 46.3745,115.501122 44.7425,114.504987 L7.409,91.6683811 C4.0655,89.6242789 2,85.7952317 2,81.6470973 L2,36.3529027 C2,32.2031485 4.0655,28.3773408 7.409,26.3316189 L44.7425,3.49663266 Z" id="Trophy-1" fill="#C0DDF4"></path><g id="Phones" filter="url(#filter-1)" transform="translate(17.000000, 24.000000)"><path d="M0.419192423,10.1894045 L0.419192423,51.5898864 C0.419192423,54.530124 2.81552077,56.9139895 5.77297282,56.9139895 L59.7869068,56.9139895 C62.7435337,56.9139895 65.1415124,54.530124 65.1415124,51.5898864 L65.1415124,10.1894045 L0.419192423,10.1894045 Z" id="Fill-3895" fill="#DBDBDB"></path><path d="M65.1411823,5.90525754 C65.1411823,2.96501995 62.7440288,0.581154413 59.7874019,0.581154413 L5.77346793,0.581154413 C2.81601587,0.581154413 0.418862351,2.96501995 0.418862351,5.90525754 L0.418862351,10.1896506 L65.1411823,10.1896506 L65.1411823,5.90525754 Z" id="Fill-3898" fill="#F4F4F4"></path><path d="M8.02877268,5.45884692 C8.02877268,6.76525447 6.9634628,7.82465908 5.65059834,7.82465908 C4.3369087,7.82465908 3.27159882,6.76525447 3.27159882,5.45884692 C3.27159882,4.15325998 4.3369087,3.09385536 5.65059834,3.09385536 C6.9634628,3.09385536 8.02877268,4.15325998 8.02877268,5.45884692" id="Fill-3901" fill="#D83A18"></path><path d="M15.1628831,5.45884692 C15.1628831,6.76525447 14.0983984,7.82465908 12.7847088,7.82465908 C11.4710191,7.82465908 10.4065344,6.76525447 10.4065344,5.45884692 C10.4065344,4.15325998 11.4710191,3.09385536 12.7847088,3.09385536 C14.0983984,3.09385536 15.1628831,4.15325998 15.1628831,5.45884692" id="Fill-3904" fill="#FDB82C"></path><path d="M22.2978187,5.45884692 C22.2978187,6.76525447 21.2325088,7.82465908 19.9188192,7.82465908 C18.6059547,7.82465908 17.5406449,6.76525447 17.5406449,5.45884692 C17.5406449,4.15325998 18.6059547,3.09385536 19.9188192,3.09385536 C21.2325088,3.09385536 22.2978187,4.15325998 22.2978187,5.45884692" id="Fill-3907" fill="#0DB01C"></path><path d="M57.8378271,7.82449496 L27.9786187,7.82449496 C27.0304847,7.82449496 26.2605899,7.05886792 26.2605899,6.11598961 L26.2605899,4.80219659 C26.2605899,3.85931828 27.0304847,3.09369124 27.9786187,3.09369124 L57.8378271,3.09369124 C58.7859611,3.09369124 59.5550307,3.85931828 59.5550307,4.80219659 L59.5550307,6.11598961 C59.5550307,7.05886792 58.7859611,7.82449496 57.8378271,7.82449496" id="Fill-3910" fill="#CFCFCF"></path><polygon id="Fill-3913" fill="#FFFFFF" points="4.06484622 52.7593345 61.9340302 52.7593345 61.9340302 13.3430821 4.06484622 13.3430821"></polygon><polygon id="Fill-3915" fill="#FDB82C" points="9.14219067 45.406689 13.4743958 45.406689 13.4743958 20.5833044 9.14219067 20.5833044"></polygon><polygon id="Fill-3916" fill="#FF0000" points="53.5988675 45.406689 57.9310726 45.406689 57.9310726 18.7500666 53.5988675 18.7500666"></polygon><path d="M11.6526417,16.8223769 L32.694781,28.7211894" id="Stroke-3917" stroke="#5CA3DF" stroke-width="0.95" stroke-linecap="round"></path><path d="M49.4732053,18.0532886 L34.4821251,33.7810568" id="Stroke-3918" stroke="#5CA3DF" stroke-width="0.95"></path><path d="M47.4263415,77.6282629 L18.4335742,77.6282629 C17.2114798,77.6282629 16.2212615,76.6427129 16.2212615,75.4265723 L16.2212615,23.6051924 C16.2212615,22.3898723 17.2114798,21.4035018 18.4335742,21.4035018 L47.4263415,21.4035018 C48.6492612,21.4035018 49.6411299,22.3898723 49.6411299,23.6051924 L49.6411299,75.4265723 C49.6411299,76.6427129 48.6492612,77.6282629 47.4263415,77.6282629" id="Fill-3919" fill="#DBDBDB"></path><polygon id="Fill-3920" fill="#FFFFFF" points="19.2382917 75.1537202 46.6986961 75.1537202 46.6986961 25.8918159 19.2382917 25.8918159"></polygon><path d="M34.1686385,23.6605014 C34.1686385,24.3399646 33.6141162,24.891413 32.9308656,24.891413 C32.2467898,24.891413 31.6930927,24.3399646 31.6930927,23.6605014 C31.6930927,22.9810382 32.2467898,22.4295898 32.9308656,22.4295898 C33.6141162,22.4295898 34.1686385,22.9810382 34.1686385,23.6605014" id="Fill-3921" fill="#A5A4A4"></path><polygon id="Fill-3922" fill="#FF0000" points="22.0356584 53.6127666 26.3678636 53.6127666 26.3678636 40.753843 22.0356584 40.753843"></polygon><polygon id="Fill-3923" fill="#0DB01C" points="30.7000687 53.6127666 35.0322739 53.6127666 35.0322739 41.8165301 30.7000687 41.8165301"></polygon><polygon id="Fill-3924" fill="#5CA3DF" points="39.3644791 53.6127666 43.6966842 53.6127666 43.6966842 33.6153761 39.3644791 33.6153761"></polygon><polyline id="Fill-3925" fill="#5CA3DF" points="47.931683 17.0243285 50.516978 16.6460283 50.8767573 19.0815922"></polyline><polyline id="Stroke-3926" stroke="#5CA3DF" stroke-width="0.95" stroke-linecap="round" points="36.6828853 31.7295375 31.4570081 38.1581786 22.6547924 36.1066592"></polyline><polyline id="Fill-3927" fill="#5CA3DF" points="34.728772 31.1117019 37.314067 30.7334017 37.6738463 33.1689655"></polyline></g><g id="Azure-Hex-Border" stroke="#0078D4" stroke-width="4"><path d="M45.5620172,3.25834249 L6.67338401,26.8942953 C3.79673288,28.6432593 2,31.9508238 2,35.5582677 L2,82.4417323 C2,86.0486597 3.79764663,89.3586805 6.67318764,91.1055853 L45.560618,114.742485 C46.9289662,115.572418 48.4546283,116 50,116 C51.5458817,116 53.0723633,115.572188 54.4362178,114.743457 L93.3268764,91.1055464 C96.2016145,89.3583456 98,86.0476286 98,82.4417323 L98,35.5582677 C98,31.9518547 96.202529,28.6435953 93.3268966,26.8944659 L54.4351916,3.25759524 C53.0721095,2.42798656 51.5462432,2 50,2 C48.4543284,2 46.9293388,2.42772325 45.5620146,3.25834407 Z M45.5620146,3.25834407 C45.5619597,3.25837737 45.5619049,3.25841067 45.5618501,3.25844398 L45.5621963,3.25823359 L45.5620172,3.25834249 Z"></path></g></g></g></g></svg>

<svg xmlns="http://www.w3.org/2000/svg" viewBox="0 0 100 118"><defs><filter x="-1.5%" y="-1.3%" width="103%" height="105.1%" filterUnits="objectBoundingBox" id="a"><feOffset dy="2" in="SourceAlpha" result="shadowOffsetOuter1"/><feColorMatrix values="0 0 0 0 0 0 0 0 0 0 0 0 0 0 0 0 0 0 0.0993546196 0" in="shadowOffsetOuter1" result="shadowMatrixOuter1"/><feMerge><feMergeNode in="shadowMatrixOuter1"/><feMergeNode in="SourceGraphic"/></feMerge></filter></defs><g fill="none" fill-rule="evenodd"><path d="M44.742 3.497A10.056 10.056 0 0 1 50 2c1.813 0 3.627.499 5.256 1.497l37.335 22.835C95.933 28.377 98 32.203 98 36.352v45.295c0 4.148-2.067 7.977-5.409 10.021l-37.335 22.837A10.056 10.056 0 0 1 50 116c-1.813 0-3.626-.499-5.258-1.495L7.41 91.668C4.066 89.624 2 85.795 2 81.648V36.352c0-4.15 2.066-7.976 5.409-10.021L44.743 3.497z" fill="#C0DDF4"/><g filter="url(#a)" transform="translate(17 24)"><path d="M.42 10.19v41.4c0 2.94 2.396 5.324 5.353 5.324h54.014c2.957 0 5.355-2.384 5.355-5.324v-41.4H.419z" fill="#DBDBDB"/><path d="M65.141 5.905c0-2.94-2.397-5.324-5.354-5.324H5.773C2.816.581.42 2.965.42 5.905v4.285H65.14V5.905z" fill="#F4F4F4"/><path d="M8.029 5.459A2.373 2.373 0 0 1 5.65 7.825a2.373 2.373 0 0 1-2.38-2.366 2.373 2.373 0 0 1 2.38-2.365 2.372 2.372 0 0 1 2.378 2.365" fill="#D83A18"/><path d="M15.163 5.459a2.372 2.372 0 0 1-2.378 2.366 2.372 2.372 0 0 1-2.378-2.366 2.372 2.372 0 0 1 2.378-2.365 2.372 2.372 0 0 1 2.378 2.365" fill="#FDB82C"/><path d="M22.298 5.459a2.373 2.373 0 0 1-2.38 2.366 2.373 2.373 0 0 1-2.377-2.366 2.372 2.372 0 0 1 2.378-2.365 2.373 2.373 0 0 1 2.379 2.365" fill="#0DB01C"/><path d="M57.838 7.824h-29.86a1.714 1.714 0 0 1-1.717-1.708V4.802c0-.943.77-1.708 1.718-1.708h29.859c.948 0 1.717.765 1.717 1.708v1.314c0 .943-.769 1.708-1.717 1.708" fill="#CFCFCF"/><path fill="#FFF" d="M4.065 52.76h57.869V13.342H4.064z"/><path fill="#FDB82C" d="M9.142 45.407h4.332V20.583H9.142z"/><path fill="red" d="M53.599 45.407h4.332V18.75H53.6z"/><path d="M11.653 16.822l21.042 11.9" stroke="#5CA3DF" stroke-width=".95" stroke-linecap="round"/><path d="M49.473 18.053l-14.99 15.728" stroke="#5CA3DF" stroke-width=".95"/><path d="M47.426 77.628H18.434a2.207 2.207 0 0 1-2.213-2.201V23.605c0-1.215.99-2.201 2.213-2.201h28.992c1.223 0 2.215.986 2.215 2.201v51.822a2.208 2.208 0 0 1-2.215 2.201" fill="#DBDBDB"/><path fill="#FFF" d="M19.238 75.154h27.46V25.892h-27.46z"/><path d="M34.169 23.66c0 .68-.555 1.231-1.238 1.231a1.234 1.234 0 0 1-1.238-1.23c0-.68.554-1.231 1.238-1.231.683 0 1.238.551 1.238 1.23" fill="#A5A4A4"/><path fill="red" d="M22.036 53.613h4.332v-12.86h-4.332z"/><path fill="#0DB01C" d="M30.7 53.613h4.332V41.817H30.7z"/><path fill="#5CA3DF" d="M39.364 53.613h4.333V33.615h-4.333zM47.932 17.024l2.585-.378.36 2.436"/><path stroke="#5CA3DF" stroke-width=".95" stroke-linecap="round" d="M36.683 31.73l-5.226 6.428-8.802-2.051"/><path fill="#5CA3DF" d="M34.729 31.112l2.585-.379.36 2.436"/></g><path d="M45.562 3.258L6.673 26.894C3.797 28.644 2 31.951 2 35.558v46.884c0 3.607 1.798 6.917 4.673 8.664l38.888 23.636A8.539 8.539 0 0 0 50 116a8.525 8.525 0 0 0 4.436-1.257l38.89-23.637C96.203 89.358 98 86.048 98 82.442V35.558c0-3.606-1.797-6.914-4.673-8.664L54.435 3.258A8.511 8.511 0 0 0 50 2c-1.546 0-3.07.428-4.438 1.258zm0 0s0 0 0 0h0z" stroke="#0078D4" stroke-width="4"/></g></svg>
